X:321
T:Vardar Ovasi
Z:Jack Campin, http://www.campin.me.uk/
F:Jack Campin's Nine-Note Tunebook
% last edit 03-02-2013
S:Mehmet Gunduz, "Sarkilar, Turkuler ve Oyun Havalari", v3
M:5/8
L:1/8
Q:5/8=48
N:bars 4 and 18 are |ED CB,A,| in the original - a flourish for the saz
K:EPhr
P:Intro
|:DE E E2| F^G FE2|   DE  EE2 |[1 ED  F2E:|\
                               [2 E2- E2z||
P:Verse
|:DE E E2|^GA  B2A|   A2 ^GFE:|
|:AA A^GF| EF ^GFG|[1 FE  F2E:|\
                   [2 FE- E3  |   E2- E2z||
P:Chorus
|:DE E E2| F^G F2E|   DE  EE2 |   ED  F2E |
  DE E E2| F^G F2E|   DE  EE2 |   E2- E2z:|

